X: 42884
T: Wiliam Tremblay's Dream
R: reel
M: 4/4
K: Gmajor
[M:3/2]|dc|[M:2/2] BG G2 FGAB|c3 d cBce|d3 e dcBd|
cBAc BAGB|[M:3/2] AFDF AGGF G2:|
df|g2 dg Bgdg baa^g|a2 ea caea c'aaf|[M:2/2] g2 dg Bgdg|
bagf gedB|cBAc BAGB|[M:3/2] AFDF AGGF G2:|

